assets/img/arrow-step.svg

<svg width="104" height="208" viewBox="0 0 104 208" fill="none" xmlns="http://www.w3.org/2000/svg">
<path d="M31.0571 207.725C31.3261 207.787 31.5947 207.619 31.657 207.35L32.6723 202.966C32.7346 202.697 32.5671 202.429 32.298 202.366C32.029 202.304 31.7604 202.472 31.6981 202.741L30.7956 206.638L26.8987 205.735C26.6297 205.673 26.3611 205.84 26.2988 206.109C26.2365 206.378 26.4041 206.647 26.6731 206.709L31.0571 207.725ZM31.5941 206.973C30.8641 205.803 30.1472 204.635 29.4435 203.47L28.5875 203.987C29.2937 205.156 30.0131 206.328 30.7457 207.502L31.5941 206.973ZM25.3417 196.441C23.9933 194.046 22.7017 191.663 21.4673 189.291L20.5802 189.752C21.8199 192.134 23.1166 194.528 24.4704 196.932L25.3417 196.441ZM17.842 182.013C16.6592 179.526 15.5407 177.053 14.4867 174.593L13.5675 174.987C14.6269 177.459 15.7508 179.944 16.939 182.442L17.842 182.013ZM11.436 167.041C10.4601 164.466 9.55692 161.908 8.72653 159.366L7.77597 159.676C8.61131 162.233 9.51971 164.807 10.5009 167.396L11.436 167.041ZM6.39487 151.573C5.67498 148.92 5.03694 146.286 4.48102 143.672L3.50289 143.88C4.06276 146.512 4.70518 149.164 5.42977 151.835L6.39487 151.573ZM3.02781 135.678C2.61943 132.963 2.30288 130.27 2.07849 127.601L1.08201 127.685C1.30828 130.376 1.62739 133.09 2.03893 135.827L3.02781 135.678ZM1.67944 119.481C1.6425 116.747 1.7063 114.04 1.87124 111.36L0.87313 111.298C0.706628 114.004 0.642258 116.736 0.679531 119.495L1.67944 119.481ZM2.68672 103.282C3.06687 100.591 3.55381 97.9303 4.14797 95.2996L3.17254 95.0793C2.57231 97.7368 2.08048 100.425 1.69655 103.142L2.68672 103.282ZM6.26357 87.465C7.07608 84.8886 7.99697 82.3436 9.02674 79.8308L8.10143 79.4516C7.06113 81.9901 6.13076 84.5613 5.30987 87.1643L6.26357 87.465ZM12.4094 72.4565C13.6267 70.065 14.9485 67.7051 16.3751 65.3776L15.5225 64.855C14.0823 67.2047 12.7476 69.5876 11.5182 72.0028L12.4094 72.4565ZM20.8767 58.6229C22.4411 56.4548 24.1024 54.3171 25.8609 52.2107L25.0932 51.5698C23.32 53.6939 21.6442 55.8502 20.0657 58.0378L20.8767 58.6229ZM31.2725 46.1493C33.1134 44.217 35.0416 42.3132 37.0573 40.4387L36.3764 39.7064C34.3462 41.5943 32.4037 43.5122 30.5485 45.4595L31.2725 46.1493ZM43.165 35.0717C45.2159 33.3666 47.3443 31.6878 49.5504 30.0358L48.951 29.2354C46.7317 30.8972 44.59 32.5865 42.5257 34.3027L43.165 35.0717ZM56.1745 25.3153C58.3827 23.8167 60.6594 22.3421 63.0048 20.8921L62.479 20.0415C60.1218 21.4988 57.8332 22.981 55.613 24.4878L56.1745 25.3153ZM70.0147 16.7474C72.3433 15.4302 74.7326 14.1351 77.183 12.8623L76.7221 11.9749C74.2614 13.253 71.8616 14.5538 69.5224 15.877L70.0147 16.7474ZM84.4933 9.21886C86.9007 8.06738 89.3617 6.9359 91.8767 5.82472L91.4725 4.91002C88.9486 6.02515 86.4784 7.16082 84.0618 8.31675L84.4933 9.21886ZM99.356 2.64534C100.618 2.12914 101.893 1.61772 103.18 1.11113L102.814 0.180592C101.523 0.688792 100.244 1.20186 98.9775 1.71976L99.356 2.64534Z" fill="#CECECE"/>
</svg>

<svg width="104" height="208" viewBox="0 0 104 208" fill="none" xmlns="http://www.w3.org/2000/svg"><path d="M31.057 207.725a.5.5 0 0 0 .6-.375l1.015-4.384a.5.5 0 1 0-.974-.225l-.902 3.897-3.897-.903a.5.5 0 0 0-.226.974l4.384 1.016Zm.537-.752c-.73-1.17-1.447-2.338-2.15-3.503l-.857.517a285.242 285.242 0 0 0 2.159 3.515l.848-.529Zm-6.252-10.532a246.939 246.939 0 0 1-3.875-7.15l-.887.461a247.429 247.429 0 0 0 3.89 7.18l.872-.491Zm-7.5-14.428a208.086 208.086 0 0 1-3.355-7.42l-.92.394a209.256 209.256 0 0 0 3.372 7.455l.903-.429Zm-6.406-14.972a174.957 174.957 0 0 1-2.71-7.675l-.95.31a176.092 176.092 0 0 0 2.725 7.72l.935-.355Zm-5.041-15.468a146.708 146.708 0 0 1-1.914-7.901l-.978.208c.56 2.632 1.202 5.284 1.927 7.955l.965-.262Zm-3.367-15.895a124.33 124.33 0 0 1-.95-8.077l-.996.084c.226 2.691.545 5.405.957 8.142l.989-.149Zm-1.349-16.197c-.036-2.734.027-5.441.192-8.121l-.998-.062c-.166 2.706-.23 5.438-.193 8.197l1-.014Zm1.008-16.199c.38-2.691.867-5.352 1.461-7.982l-.975-.22c-.6 2.657-1.093 5.345-1.476 8.062l.99.14Zm3.577-15.817a97.291 97.291 0 0 1 2.763-7.634l-.926-.38a98.29 98.29 0 0 0-2.791 7.713l.954.301Zm6.145-15.008a102.647 102.647 0 0 1 3.966-7.08l-.852-.522a103.666 103.666 0 0 0-4.005 7.148l.891.454Zm8.468-13.834a115.073 115.073 0 0 1 4.984-6.412l-.768-.641a116.124 116.124 0 0 0-5.027 6.468l.81.585Zm10.396-12.474c1.84-1.932 3.769-3.836 5.784-5.71l-.68-.733a135.327 135.327 0 0 0-5.829 5.753l.725.69Zm11.892-11.077c2.05-1.705 4.18-3.384 6.385-5.036l-.599-.8a160.946 160.946 0 0 0-6.425 5.067l.639.769Zm13.01-9.757a191.328 191.328 0 0 1 6.83-4.423l-.526-.85a192.256 192.256 0 0 0-6.866 4.446l.562.827Zm13.84-8.568a228.28 228.28 0 0 1 7.168-3.885l-.46-.887a229.17 229.17 0 0 0-7.2 3.902l.492.87ZM84.493 9.22a269.887 269.887 0 0 1 7.384-3.394l-.404-.915a270.794 270.794 0 0 0-7.411 3.407l.431.902Zm14.863-6.574a310.455 310.455 0 0 1 3.824-1.534l-.366-.93c-1.291.508-2.57 1.02-3.836 1.539l.378.925Z" fill="#CECECE"/></svg>
